X: 16389
T: Gwerz Ar Vezhinerien
R: waltz
M: 3/4
K: Dmajor
E2|E4 B2|B4 c2|d4 e2|d4 c2|B6-|B4 B2|
e4 B2|A4 G2|F4 G2|F6-|F4 E2|
E4 B2|B4 c2|d4 e2|d4 c2|B6-|B4 B2|
=c4 B2|A4 G2|F4 G2|F2 E4-|E6|
E2G2B2|A4 G2|E6-|E6|E4 G2-|G2 B4|A4 G2-|G2 A4|
B6-|B6|E4 G2-|G2 B4|A4 G2|E6||

